imgs/ls-white.svg

<?xml version="1.0" encoding="UTF-8"?>
<svg width="50px" height="62px" viewBox="0 0 50 62" version="1.1" xmlns="http://www.w3.org/2000/svg" xmlns:xlink="http://www.w3.org/1999/xlink">
    <!-- Generator: Sketch 58 (84663) - https://sketch.com -->
    <title>ls-white</title>
    <desc>Created with Sketch.</desc>
    <g id="ls-white" stroke="none" stroke-width="1" fill="none" fill-rule="evenodd">
        <path d="M8.3984375,6.6171875 L8.3984375,53.8828125 L32.5390625,53.8828125 L32.5390625,61.8125 L0,61.8125 L0,6.6171875 L8.3984375,6.6171875 Z M34.46875,0 C39.90625,0 44.875,2.375 47.90625,7.75 L41.3125,11.78125 C39.78125,8.78125 37.15625,7.0625 34.1875,7.0625 C31.0625,7.0625 28.625,8.96875 28.625,11.78125 C28.625,20.09375 50,17.28125 50,31.9375 C50,40.28125 43.09375,45.3125 34.65625,45.3125 C26.84375,45.3125 19.15625,41.03125 17.75,32.34375 L25.625,30.34375 C26.1875,35.84375 30.09375,38.28125 34.78125,38.28125 C39.5,38.28125 42.0625,35.78125 42.0625,32.65625 C42.0625,23.5 20.6875,26.5625 20.6875,12.1875 C20.6875,4.375 27.03125,0 34.46875,0 Z" id="Combined-Shape" fill="#FFFFFF" fill-rule="nonzero"></path>
    </g>
</svg>

<svg height="62" viewBox="0 0 50 62" width="50" xmlns="http://www.w3.org/2000/svg"><path d="m8.3984375 6.6171875v47.265625h24.140625v7.9296875h-32.5390625v-55.1953125zm26.0703125-6.6171875c5.4375 0 10.40625 2.375 13.4375 7.75l-6.59375 4.03125c-1.53125-3-4.15625-4.71875-7.125-4.71875-3.125 0-5.5625 1.90625-5.5625 4.71875 0 8.3125 21.375 5.5 21.375 20.15625 0 8.34375-6.90625 13.375-15.34375 13.375-7.8125 0-15.5-4.28125-16.90625-12.96875l7.875-2c.5625 5.5 4.46875 7.9375 9.15625 7.9375 4.71875 0 7.28125-2.5 7.28125-5.625 0-9.15625-21.375-6.09375-21.375-20.46875 0-7.8125 6.34375-12.1875 13.78125-12.1875z" fill="#fff"/></svg>
